packages/Snapp/src/SupportIcon/index.svg

<?xml version="1.0" encoding="UTF-8"?>
<svg width="24px" height="24px" viewBox="0 0 24 24" version="1.1" xmlns="http://www.w3.org/2000/svg" xmlns:xlink="http://www.w3.org/1999/xlink">
    <title>Icons/24/Support</title>
    <g id="Icons/24/Support" stroke="none" stroke-width="1" fill="none" fill-rule="evenodd">
        <rect id="Container" fill-opacity="0" fill="#D8D8D8" fill-rule="nonzero" x="0" y="0" width="24" height="24"></rect>
        <path d="M17,17 L17,10 C17,9.44771525 17.4477153,9 18,9 C18,6.23857625 15.7614237,4 13,4 L11,4 C8.23857625,4 6,6.23857625 6,9 C6.55228475,9 7,9.44771525 7,10 L7,17 C7,17.5522847 6.55228475,18 6,18 L4,18 C2.34314575,18 1,16.6568542 1,15 L1,12 C1,10.3431458 2.34314575,9 4,9 C4,5.13400675 7.13400675,2 11,2 L13,2 C16.8659932,2 20,5.13400675 20,9 C21.6568542,9 23,10.3431458 23,12 L23,15 C23,16.6568542 21.6568542,18 20,18 L18.3945516,18 C17.9423987,20.110163 16.0886438,21.7003814 13.8550815,21.7488606 C13.5586716,22.4824217 12.8397792,23 12,23 L10,23 C8.8954305,23 8,22.1045695 8,21 C8,19.8954305 8.8954305,19 10,19 L12,19 C12.8387216,19 13.5568606,19.5162754 13.8539596,20.2483688 C15.6007743,20.1934771 17,18.7601419 17,17 Z M10,20.5 C9.72385763,20.5 9.5,20.7238576 9.5,21 C9.5,21.2761424 9.72385763,21.5 10,21.5 L12,21.5 C12.2761424,21.5 12.5,21.2761424 12.5,21 C12.5,20.7238576 12.2761424,20.5 12,20.5 L10,20.5 Z M5,11 L4,11 C3.44771525,11 3,11.4477153 3,12 L3,15 C3,15.5522847 3.44771525,16 4,16 L5,16 L5,11 Z M19,11 L19,16 L20,16 C20.5522847,16 21,15.5522847 21,15 L21,12 C21,11.4477153 20.5522847,11 20,11 L19,11 Z" id="Shape" fill="#404040" fill-rule="nonzero"></path>
    </g>
</svg>

<svg viewBox="0 0 24 24" xmlns="http://www.w3.org/2000/svg" fill="currentColor" focusable="false">
  <path d="M17 17v-7a1 1 0 011-1 5 5 0 00-5-5h-2a5 5 0 00-5 5 1 1 0 011 1v7a1 1 0 01-1 1H4a3 3 0 01-3-3v-3a3 3 0 013-3 7 7 0 017-7h2a7 7 0 017 7 3 3 0 013 3v3a3 3 0 01-3 3h-1.605a4.752 4.752 0 01-4.54 3.749A2 2 0 0112 23h-2a2 2 0 110-4h2a2 2 0 011.854 1.248A3.25 3.25 0 0017 17zm-7 3.5a.5.5 0 100 1h2a.5.5 0 100-1h-2zM5 11H4a1 1 0 00-1 1v3a1 1 0 001 1h1v-5zm14 0v5h1a1 1 0 001-1v-3a1 1 0 00-1-1h-1z" fill="none"/>
</svg>
